X: 3147
T: Beauty Spot, The
R: reel
M: 4/4
K: Dmixolydian
|(3AAA GB A2 dB|cBcG EFGB|A2 GB ABdB|cBcG ED (3DDD|
A2 GB (3AAA dB|cBcG EFGB|(3AAA Ad ~B3d|cBce ed(3ddd||
ed (3B^cd edcd|ed^cd eaag|ed (3B^cd ed=cB|ABcd ed^cd|
ed (3B^cd edcd|ed^cd eaag|fgdB =cABG|ABcd gedB||

